X: 234
T:Handels Gavot..(No1). JC.239
M:2/4
L:1/8
Q:220
S:John Clare,Poet,Helpstone (1793-1864)
R:Gavotte
O:England4
A:Northamptonshire
N:No TS inthe MS.
N:No TS in Ms.
Z:vmp.P. Headford
K:D
d3e|defg|a2a2|g2f2|A3B|B>G e>f|gfed|dcBA|!
d3e|defg|a2a2|g2f2|A3c|Bgfe|d2c2|d3z:|!
|:gfga|b2b2|f>e fg|a2a2|edef|ga fg|ef de|dcBA|!
gf ga|b2b2|fefg|a2a2|edef|ga fg|fedc|d4:|]
